X: 22
T: Booth Shot Lincoln
B: canberra pickers and fiddlers
B: tunes
M:4/4
L:1/8
Q: 1/4=100
K:A
V:1 
(3AGF|"A"ECEF E3E|"D"FA2B A3A-|"A"ABcA AcBA|"F#m"[A,3F3]{E}[A,3F3]AF|
"A"ECEF E3E|"D"FA2B A3(f|"E"e2)cA BcAF|"A"A4A2:|
AB|"A"ce2f e3e|"D"fa2b a3(f|"A"e2)cB AcBA|"F#m"[F3A3][F3A3][EA]B|
"A"c1e2f e3e|"D"fa2b a3(f|"E"e2)cB AcBG|("A"A[A2A2])(A [A2A2])AB|
"A"ce2f e3e|"D"fa2b a3(f|"A"e2)cB AcBA|"F#m"[F3A3][F3A3]AF||
"A"ECEF E3E|"D"FA2B A3(f|"E"e2)cA BcAF|"A"A4A2||
% abcbook-tune_id 63ae8f1c362bf193f9ab5379
% abcbook-tune_composer_id 
% abcbook-link-0 https://www.youtube.com/watch?v=UQveux304rk
% abcbook-boost 14
% abcbook-difficulty 0
% abcbook-tags canberra pickers and fiddlers,old time tunes,steve ryan,© free
% abcbook-tablature 
% abcbook-transpose 
% abcbook-tuning AEAE
% abcbook-lastupdated 1739274130738
% abcbook-src-url https://tunebook.net/scrape/tunes.abc
% abcbook-soundfonts 
% abcbook-repeats 1


